images/coloniallife__logo.svg

<?xml version="1.0" encoding="UTF-8"?>
<svg width="571px" height="142px" viewBox="0 0 571 142" version="1.1" xmlns="http://www.w3.org/2000/svg" xmlns:xlink="http://www.w3.org/1999/xlink">
    <!-- Generator: sketchtool 41.2 (35397) - http://www.bohemiancoding.com/sketch -->
    <title>4729F5C8-7BEF-4499-BCD2-2DC387D0491E</title>
    <desc>Created with sketchtool.</desc>
    <defs>
        <polygon id="path-1" points="67.6814376 73.2005405 0.232862335 73.2005405 0.232862335 0.139135135 67.6814376 0.139135135"></polygon>
    </defs>
    <g id="Comps" stroke="none" stroke-width="1" fill="none" fill-rule="evenodd">
        <g id="Colonial-Life" transform="translate(-428.000000, -185.000000)">
            <g id="Masthead" transform="translate(-26.000000, -15.000000)">
                <g id="Logo" transform="translate(454.000000, 200.000000)">
                    <g id="Group-3" transform="translate(0.000000, 68.721414)">
                        <mask id="mask-2" fill="white">
                            <use xlink:href="#path-1"></use>
                        </mask>
                        <g id="Clip-2"></g>
                        <path d="M58.7162377,22.4703243 C52.3435718,15.8498108 45.0860291,12.4757838 37.1298993,12.4757838 C30.3419622,12.4757838 24.5281659,14.8410811 19.8553951,19.4557297 C15.1942673,24.1051622 12.8345957,29.8985946 12.8345957,36.6891622 C12.8345957,41.4081622 13.8708331,45.6904324 15.9394268,49.3427297 C18.0157826,53.0491351 20.9808964,55.9516486 24.7493852,58.0425405 C28.4984687,60.1102432 32.7637305,61.1846757 37.3744047,61.1846757 C41.3058972,61.1846757 44.9463117,60.4426216 48.2063844,58.9932973 C51.3888363,57.5478378 54.9361058,54.9004054 58.7045946,51.2017297 C59.0926985,51.5959459 66.9944937,59.8203784 67.417527,60.2145946 C62.333366,65.1268378 57.4626622,68.5704324 52.9334897,70.4796757 C48.3344586,72.4237027 43.0135543,73.4324324 37.1493045,73.4324324 C26.3095628,73.4324324 17.3016715,69.9308649 10.4050653,63.0977838 C3.48517294,56.2453784 0,47.3716486 0,36.6505135 C0,29.7246757 1.58346388,23.4906486 4.71934332,18.1107568 C7.87462796,12.7501892 12.4464918,8.34424324 18.2952174,5.05524324 C24.1788724,1.78556757 30.5903487,0.139135135 37.3433564,0.139135135 C43.0950561,0.139135135 48.7186815,1.36043243 54.0434669,3.77983784 C59.2906315,6.16832432 63.8469712,9.60418919 67.6814376,13.9753514 L58.7162377,22.4703243" id="Fill-1" fill="#FFFFFF" mask="url(#mask-2)"></path>
                    </g>
                    <path d="M78.9325694,94.5773597 C73.0411524,99.945657 70.0527524,106.705306 70.0527524,114.705576 C70.0527524,122.164765 72.6918589,128.607495 77.9079752,133.828927 C83.1318535,139.02717 89.4967574,141.713252 96.8552071,141.713252 C101.877271,141.713252 106.515113,140.495819 110.679468,138.118927 C114.843823,135.76136 118.169873,132.418252 120.579998,128.232603 C122.97848,124.004441 124.193245,119.440035 124.193245,114.612819 C124.193245,109.820387 122.997885,105.275306 120.599403,101.136035 C118.204802,96.9813056 114.843823,93.653657 110.559156,91.2458462 C106.282251,88.8264407 101.667695,87.6244678 96.8202778,87.6244678 C90.1060805,87.6244678 84.0827081,89.9704407 78.9325694,94.5773597 M86.5859782,125.8789 L86.5859782,125.8789 C83.8847751,123.003441 82.4992442,119.250657 82.4992442,114.666927 C82.4992442,110.199143 83.9041803,106.485008 86.6403127,103.621143 C89.3958503,100.730225 92.8926664,99.2770353 97.0298539,99.2770353 C101.244662,99.2770353 104.78417,100.714765 107.500897,103.56317 C110.221505,106.396116 111.587631,110.133441 111.587631,114.666927 C111.587631,119.177225 110.198219,122.930008 107.403871,125.824792 C104.663857,128.727306 101.151517,130.172765 96.9755193,130.172765 C92.8111646,130.172765 89.3182296,128.727306 86.5859782,125.8789" id="Fill-4" fill="#FFFFFF"></path>
                    <polygon id="Fill-5" fill="#FFFFFF" points="131.970847 140.383738 144.471674 140.383738 144.471674 70.1359543 131.970847 70.1359543"></polygon>
                    <path d="M161.15626,94.5773597 C155.260962,99.945657 152.284205,106.705306 152.284205,114.705576 C152.284205,122.164765 154.927192,128.607495 160.135547,133.828927 C165.355544,139.02717 171.724329,141.713252 179.098303,141.713252 C184.108724,141.713252 188.746566,140.495819 192.914801,138.118927 C197.05587,135.76136 200.393563,132.418252 202.799807,128.232603 C205.206052,124.004441 206.424698,119.440035 206.424698,114.612819 C206.424698,109.820387 205.217695,105.275306 202.826975,101.136035 C200.424612,96.9813056 197.05587,93.653657 192.794489,91.2458462 C188.509822,88.8264407 183.895267,87.6244678 179.047849,87.6244678 C172.353057,87.6244678 166.325804,89.9704407 161.15626,94.5773597 M168.832955,125.8789 L168.832955,125.8789 C166.100703,123.003441 164.730697,119.250657 164.730697,114.666927 C164.730697,110.199143 166.120109,106.485008 168.875646,103.621143 C171.635065,100.730225 175.124119,99.2770353 179.253544,99.2770353 C183.483877,99.2770353 187.003979,100.714765 189.724587,103.56317 C192.437434,106.396116 193.822964,110.133441 193.822964,114.666927 C193.822964,119.177225 192.42579,122.930008 189.650848,125.824792 C186.891429,128.727306 183.367446,130.172765 179.203091,130.172765 C175.034855,130.172765 171.545801,128.727306 168.832955,125.8789" id="Fill-6" fill="#FFFFFF"></path>
                    <path d="M236.13017,89.0699272 L236.13017,89.0699272 C233.758855,90.0013597 231.077057,91.7444137 228.127467,94.2024678 L227.626813,94.6353326 L227.626813,88.9501164 L215.114344,88.9501164 L215.114344,140.383738 L227.626813,140.383738 L227.626813,119.799468 C227.626813,114.30363 227.824746,110.836846 228.216731,109.16336 C228.961891,105.998035 230.320254,103.478143 232.249131,101.684846 C234.209055,99.8799543 236.584251,98.971711 239.312622,98.971711 C241.408383,98.971711 243.201423,99.5205218 244.652931,100.610414 C246.06951,101.735089 247.097986,103.354468 247.67626,105.441495 C248.250654,107.532387 248.526208,111.590495 248.526208,117.905684 L248.526208,140.383738 L260.848506,140.383738 L260.848506,106.2879 C260.848506,100.413306 259.358188,95.8914137 256.400836,92.9309272 C252.857447,89.3829813 248.510684,87.6206029 243.442047,87.6206029 C240.95042,87.6206029 238.505365,88.103711 236.13017,89.0699272" id="Fill-7" fill="#FFFFFF"></path>
                    <polygon id="Fill-8" fill="#FFFFFF" points="272.712842 140.383738 285.221431 140.383738 285.221431 88.9501164 272.712842 88.9501164"></polygon>
                    <path d="M302.36398,95.1880083 L302.36398,95.1880083 C297.679566,100.254846 295.30437,106.825116 295.30437,114.771279 C295.30437,122.373468 297.761068,128.835522 302.573556,133.960333 C307.448141,139.096738 313.242532,141.713252 319.871346,141.713252 C322.801531,141.713252 325.580355,141.18763 328.110792,140.113198 C330.629586,139.085143 333.175548,137.33436 335.717628,134.957468 L336.218282,134.447306 L336.218282,140.383738 L348.730752,140.383738 L348.730752,88.9501164 L336.218282,88.9501164 L336.218282,95.1416299 L335.702104,94.5812245 C333.396767,92.2816299 330.86633,90.5192516 328.165126,89.3520624 C325.471685,88.1926029 322.564787,87.6206029 319.483242,87.6206029 C312.784569,87.6206029 307.036751,90.1752786 302.36398,95.1880083 M307.750862,114.612819 C307.750862,110.102522 309.116987,106.342008 311.85312,103.44336 C314.562085,100.529252 318.031734,99.087657 322.145635,99.087657 C326.352681,99.087657 329.880546,100.490603 332.632202,103.377657 C335.395502,106.218333 336.765509,109.978846 336.765509,114.562576 C336.765509,119.250657 335.395502,123.088468 332.632202,125.983252 C329.880546,128.88963 326.375967,130.350549 322.19997,130.350549 C318.136522,130.350549 314.670754,128.847116 311.907454,125.905954 C309.148036,122.968657 307.750862,119.16563 307.750862,114.612819" id="Fill-9" fill="#FFFFFF"></path>
                    <polygon id="Fill-10" fill="#FFFFFF" points="361.23934 140.383738 373.740166 140.383738 373.740166 68.8644137 361.23934 68.8644137"></polygon>
                    <polyline id="Fill-11" fill="#FFFFFF" points="408.075718 68.8257651 408.075718 140.383738 440.474631 140.383738 440.474631 128.197819 420.910313 128.197819 420.910313 68.8257651 408.075718 68.8257651"></polyline>
                    <path d="M483.860765,69.9620353 C481.885316,71.5775489 480.689956,73.8075759 480.356186,76.578684 C480.185421,77.807711 480.057346,81.8658191 480.026298,88.6293326 L480.026298,88.9539813 L475.357408,88.9539813 L475.357408,99.3697921 L480.026298,99.3697921 L480.026298,140.383738 L492.550411,140.383738 L492.550411,99.3697921 L500.828667,99.3697921 L500.828667,88.9539813 L492.550411,88.9539813 L492.58534,82.1247651 C492.58534,80.5169813 492.868656,79.4734678 493.439169,78.9362516 C494.238663,78.2289813 495.437904,77.8695489 497.02913,77.8695489 C498.177917,77.8695489 499.652712,78.1555489 501.383655,78.6231975 L501.383655,69.3088732 C498.104177,68.1455489 495.084729,67.5310353 492.47279,67.5310353 C488.77416,67.5310353 485.871143,68.342657 483.860765,69.9620353" id="Fill-12" fill="#FFFFFF"></path>
                    <path d="M511.629598,95.3812516 C506.560961,100.529252 503.987832,107.118846 503.987832,114.949062 C503.987832,122.558981 506.560961,129.001711 511.649003,134.076279 C516.709878,139.135387 523.373622,141.713252 531.481112,141.713252 C536.689466,141.713252 541.238044,140.770225 545.025938,138.934414 C548.716806,137.144981 551.899258,134.350684 554.56165,130.652008 C553.88635,130.350549 544.389447,125.917549 544.051797,125.759089 C540.508409,129.129252 536.266433,130.849116 531.376324,130.849116 C527.211969,130.849116 523.722915,129.73217 521.037236,127.486684 C518.374844,125.264387 516.674949,122.215008 516.069506,118.45063 L516.00741,118.087333 L558.194303,118.087333 C558.225351,117.619684 558.252518,115.903684 558.252518,115.903684 C558.252518,107.451225 555.687152,100.529252 550.595229,95.3812516 C545.534354,90.2293867 538.87061,87.6244678 530.732072,87.6244678 C523.121354,87.6244678 516.674949,90.2293867 511.629598,95.3812516 M531.356919,98.0364137 C534.783876,98.0364137 537.846016,98.971711 540.446312,100.807522 C543.046608,102.666522 544.804719,105.116846 545.689595,108.042549 L545.813789,108.452225 L516.438205,108.452225 L516.647781,108.01163 C518.130338,104.772873 519.791423,102.457819 521.53789,101.136035 C524.347762,99.087657 527.66217,98.0364137 531.356919,98.0364137" id="Fill-13" fill="#FFFFFF"></path>
                    <path d="M448.923652,52.8174948 C448.923652,59.4650624 452.827977,64.8874678 457.597774,64.8874678 C462.371452,64.8874678 466.244729,59.4650624 466.244729,52.8174948 C466.244729,46.1506029 462.371452,40.743657 457.597774,40.743657 C452.827977,40.743657 448.923652,46.1506029 448.923652,52.8174948" id="Fill-14" fill="#FFFFFF"></path>
                    <path d="M383.931775,34.2738732 C383.931775,45.319657 387.083178,54.6610353 390.770165,54.6610353 C394.499844,54.6610353 397.62408,45.319657 397.62408,34.2738732 C397.62408,23.2203597 394.499844,13.8905759 390.770165,13.8905759 C387.083178,13.8905759 383.931775,23.2203597 383.931775,34.2738732" id="Fill-15" fill="#FFFFFF"></path>
                    <path d="M268.835685,57.331657 C268.835685,63.306738 273.71415,68.1610083 279.710356,68.1610083 C285.722085,68.1610083 290.59667,63.306738 290.59667,57.331657 C290.59667,51.3333867 285.722085,46.4945759 279.710356,46.4945759 C273.71415,46.4945759 268.835685,51.3333867 268.835685,57.331657" id="Fill-16" fill="#FFFFFF"></path>
                    <path d="M320.174067,56.9760894 C325.401827,56.9760894 329.678732,50.7729813 329.678732,43.174657 C329.678732,35.5570083 325.401827,29.3500353 320.174067,29.3500353 C314.930784,29.3500353 310.661641,35.5570083 310.661641,43.174657 C310.661641,50.7729813 314.930784,56.9760894 320.174067,56.9760894" id="Fill-17" fill="#FFFFFF"></path>
                    <path d="M417.134062,15.8964407 C417.134062,24.3411705 420.770596,31.2206299 425.233791,31.2206299 C429.685342,31.2206299 433.329638,24.3411705 433.329638,15.8964407 C433.329638,7.42465696 429.859989,0.525873181 425.408437,0.525873181 C420.9336,0.525873181 417.134062,7.42465696 417.134062,15.8964407" id="Fill-18" fill="#FFFFFF"></path>
                    <path d="M349.43322,23.4561164 C349.43322,32.4573867 352.600147,39.7813056 356.519997,39.7813056 C360.447608,39.7813056 363.637822,32.4573867 363.637822,23.4561164 C363.637822,14.458711 360.447608,7.14638669 356.519997,7.14638669 C352.600147,7.14638669 349.43322,14.458711 349.43322,23.4561164" id="Fill-19" fill="#FFFFFF"></path>
                    <polygon id="Fill-20" fill="#FFFFFF" points="451.341539 140.383738 463.861771 140.383738 463.861771 88.9501164 451.341539 88.9501164"></polygon>
                    <path d="M563.848977,134.18836 L564.636827,134.18836 C565.463489,134.18836 566.243578,133.929414 566.243578,133.218279 C566.243578,132.623089 565.832187,132.174765 564.749378,132.174765 C564.303058,132.174765 564.039147,132.213414 563.848977,132.252062 L563.848977,134.18836 Z M563.848977,137.689927 L562.688546,137.689927 L562.688546,131.467495 C563.325036,131.359279 564.000337,131.281981 564.861928,131.281981 C565.909808,131.281981 566.433748,131.467495 566.810209,131.765089 C567.182789,132.024035 567.438938,132.511008 567.438938,133.110062 C567.438938,133.852116 566.880068,134.339089 566.243578,134.563252 L566.243578,134.636684 C566.77528,134.860846 567.070239,135.343954 567.26041,136.163306 C567.438938,137.094738 567.594179,137.46963 567.74554,137.689927 L566.546299,137.689927 C566.356128,137.46963 566.204767,136.909225 566.022358,136.089873 C565.870998,135.382603 565.463489,135.081143 564.598017,135.081143 L563.848977,135.081143 L563.848977,137.689927 Z M560.150346,134.412522 C560.150346,137.16817 562.203416,139.332495 564.978359,139.332495 C567.629108,139.371143 569.655011,137.16817 569.655011,134.447306 C569.655011,131.726441 567.629108,129.531198 564.900738,129.531198 C562.203416,129.531198 560.150346,131.726441 560.150346,134.412522 Z M570.966802,134.412522 C570.966802,137.802008 568.34322,140.410792 564.939548,140.410792 C561.528115,140.410792 558.838555,137.802008 558.838555,134.412522 C558.838555,131.092603 561.528115,128.483819 564.978359,128.483819 C568.34322,128.483819 570.966802,131.092603 570.966802,134.412522 L570.966802,134.412522 Z" id="Fill-21" fill="#FFFFFF"></path>
                </g>
            </g>
        </g>
    </g>
</svg>

<svg width="571" height="142" viewBox="0 0 571 142" xmlns="http://www.w3.org/2000/svg" xmlns:xlink="http://www.w3.org/1999/xlink"><title>4729F5C8-7BEF-4499-BCD2-2DC387D0491E</title><defs><path id="a" d="M67.681 73.2H.233V.14H67.68z"/></defs><g fill="none" fill-rule="evenodd"><g transform="translate(0 68.721)"><mask id="b" fill="#fff"><use xlink:href="#a"/></mask><path d="M58.716 22.47c-6.372-6.62-13.63-9.994-21.586-9.994-6.788 0-12.602 2.365-17.275 6.98-4.66 4.65-7.02 10.443-7.02 17.233 0 4.72 1.036 9.001 3.104 12.654 2.077 3.706 5.042 6.609 8.81 8.7 3.75 2.067 8.015 3.142 12.625 3.142 3.932 0 7.572-.742 10.832-2.192 3.183-1.445 6.73-4.093 10.499-7.791.388.394 8.29 8.618 8.713 9.013-5.085 4.912-9.955 8.355-14.485 10.265-4.599 1.944-9.92 2.952-15.784 2.952-10.84 0-19.847-3.501-26.744-10.334C3.485 56.245 0 47.372 0 36.65c0-6.926 1.583-13.16 4.72-18.54 3.155-5.36 7.726-9.767 13.575-13.056C24.18 1.785 30.59.14 37.343.14c5.752 0 11.376 1.221 16.7 3.64 5.248 2.39 9.804 5.825 13.638 10.196l-8.965 8.495" fill="#FFF" mask="url(#b)"/></g><path d="M78.933 94.577c-5.892 5.369-8.88 12.128-8.88 20.129 0 7.459 2.639 13.901 7.855 19.123 5.224 5.198 11.589 7.884 18.947 7.884 5.022 0 9.66-1.217 13.824-3.594 4.165-2.358 7.49-5.7 9.901-9.886 2.398-4.229 3.613-8.793 3.613-13.62 0-4.793-1.195-9.338-3.594-13.477-2.394-4.155-5.755-7.482-10.04-9.89-4.277-2.42-8.891-3.622-13.739-3.622-6.714 0-12.737 2.346-17.887 6.953m7.653 31.302c-2.701-2.876-4.087-6.628-4.087-11.212 0-4.468 1.405-8.182 4.141-11.046 2.756-2.89 6.253-4.344 10.39-4.344 4.215 0 7.754 1.438 10.47 4.286 2.722 2.833 4.088 6.57 4.088 11.104 0 4.51-1.39 8.263-4.184 11.158-2.74 2.902-6.252 4.348-10.428 4.348-4.165 0-7.658-1.446-10.39-4.294m45.384 14.505h12.502V70.136H131.97zm29.186-45.807c-5.895 5.369-8.872 12.128-8.872 20.129 0 7.459 2.643 13.901 7.852 19.123 5.22 5.198 11.588 7.884 18.962 7.884 5.01 0 9.649-1.217 13.817-3.594 4.14-2.358 7.479-5.7 9.885-9.886 2.406-4.229 3.625-8.793 3.625-13.62 0-4.793-1.207-9.338-3.598-13.477-2.402-4.155-5.771-7.482-10.033-9.89-4.284-2.42-8.899-3.622-13.746-3.622-6.695 0-12.722 2.346-17.892 6.953m7.677 31.302c-2.732-2.876-4.102-6.628-4.102-11.212 0-4.468 1.39-8.182 4.145-11.046 2.76-2.89 6.248-4.344 10.378-4.344 4.23 0 7.75 1.438 10.47 4.286 2.713 2.833 4.099 6.57 4.099 11.104 0 4.51-1.397 8.263-4.172 11.158-2.76 2.902-6.284 4.348-10.448 4.348-4.168 0-7.657-1.446-10.37-4.294M236.13 89.07c-2.371.931-5.053 2.674-8.003 5.132l-.5.433V88.95h-12.513v51.434h12.513v-20.585c0-5.495.198-8.962.59-10.636.745-3.165 2.103-5.685 4.032-7.478 1.96-1.805 4.335-2.713 7.064-2.713 2.095 0 3.888.549 5.34 1.638 1.417 1.125 2.445 2.744 3.023 4.831.575 2.091.85 6.15.85 12.465v22.478h12.323v-34.096c0-5.875-1.49-10.397-4.448-13.357-3.544-3.548-7.89-5.31-12.959-5.31a19.27 19.27 0 0 0-7.312 1.449m36.583 51.314h12.508V88.95h-12.508zm29.651-45.196c-4.684 5.067-7.06 11.637-7.06 19.583 0 7.602 2.457 14.065 7.27 19.19 4.874 5.136 10.669 7.752 17.297 7.752 2.93 0 5.71-.525 8.24-1.6 2.519-1.028 5.065-2.779 7.607-5.156l.5-.51v5.937h12.513V88.95h-12.513v6.192l-.516-.56c-2.305-2.3-4.836-4.063-7.537-5.23-2.693-1.16-5.6-1.731-8.682-1.731-6.698 0-12.446 2.554-17.119 7.567m5.387 19.425c0-4.51 1.366-8.271 4.102-11.17 2.71-2.914 6.179-4.355 10.293-4.355 4.207 0 7.735 1.403 10.486 4.29 2.764 2.84 4.134 6.6 4.134 11.185 0 4.688-1.37 8.525-4.134 11.42-2.751 2.907-6.256 4.368-10.432 4.368-4.063 0-7.53-1.504-10.293-4.445-2.759-2.937-4.156-6.74-4.156-11.293m53.489 25.771h12.5v-71.52h-12.5zm46.836-71.558v71.558h32.399v-12.186H420.91V68.826h-12.834m75.784 1.136c-1.975 1.616-3.17 3.846-3.504 6.617-.17 1.229-.299 5.287-.33 12.05v.325h-4.669V99.37h4.67v41.014h12.523V99.37h8.279V88.954h-8.279l.035-6.83c0-1.607.284-2.65.854-3.188.8-.707 1.999-1.066 3.59-1.066 1.149 0 2.624.286 4.355.753V69.31c-3.28-1.163-6.3-1.778-8.911-1.778-3.699 0-6.602.812-8.612 2.431m27.769 25.418c-5.069 5.148-7.642 11.738-7.642 19.568 0 7.61 2.573 14.053 7.661 19.127 5.06 5.06 11.725 7.637 19.832 7.637 5.208 0 9.757-.943 13.545-2.779 3.69-1.789 6.873-4.583 9.536-8.282-.676-.301-10.173-4.734-10.51-4.893-3.544 3.37-7.786 5.09-12.676 5.09-4.164 0-7.653-1.117-10.339-3.362-2.662-2.223-4.362-5.272-4.967-9.036l-.063-.364h42.187c.031-.467.059-2.183.059-2.183 0-8.453-2.566-15.375-7.658-20.523-5.06-5.152-11.724-7.757-19.863-7.757-7.61 0-14.057 2.605-19.102 7.757m19.727 2.655c3.427 0 6.489.936 9.09 2.772 2.6 1.859 4.358 4.309 5.243 7.235l.124.41h-29.376l.21-.441c1.482-3.24 3.143-5.554 4.89-6.876 2.81-2.048 6.124-3.1 9.819-3.1m-82.433-45.219c0 6.648 3.904 12.07 8.674 12.07 4.773 0 8.647-5.422 8.647-12.07 0-6.666-3.874-12.073-8.647-12.073-4.77 0-8.674 5.407-8.674 12.073m-64.992-18.543c0 11.046 3.151 20.387 6.838 20.387 3.73 0 6.854-9.341 6.854-20.387 0-11.054-3.124-20.383-6.854-20.383-3.687 0-6.838 9.33-6.838 20.383M268.836 57.332c0 5.975 4.878 10.829 10.874 10.829 6.012 0 10.887-4.854 10.887-10.83 0-5.998-4.875-10.836-10.887-10.836-5.996 0-10.874 4.838-10.874 10.837m51.338-.356c5.228 0 9.505-6.203 9.505-13.801 0-7.618-4.277-13.825-9.505-13.825-5.243 0-9.512 6.207-9.512 13.825 0 7.598 4.269 13.801 9.512 13.801m96.96-41.08c0 8.445 3.637 15.325 8.1 15.325 4.451 0 8.096-6.88 8.096-15.325 0-8.471-3.47-15.37-7.922-15.37-4.474 0-8.274 6.899-8.274 15.37m-67.701 7.56c0 9.001 3.167 16.325 7.087 16.325 3.928 0 7.118-7.324 7.118-16.325 0-8.997-3.19-16.31-7.118-16.31-3.92 0-7.087 7.313-7.087 16.31m101.909 116.928h12.52V88.95h-12.52zm112.507-6.196h.788c.826 0 1.607-.259 1.607-.97 0-.595-.412-1.043-1.495-1.043-.446 0-.71.038-.9.077v1.936zm0 3.502h-1.16v-6.223a12.447 12.447 0 0 1 2.173-.185c1.048 0 1.572.185 1.948.483.373.259.629.746.629 1.345 0 .742-.559 1.23-1.195 1.453v.074c.531.224.826.707 1.016 1.526.179.932.334 1.307.486 1.527h-1.2c-.19-.22-.341-.78-.524-1.6-.151-.707-.559-1.009-1.424-1.009h-.749v2.609zm-3.699-3.277c0 2.755 2.053 4.92 4.828 4.92 2.651.038 4.677-2.165 4.677-4.886 0-2.72-2.026-4.916-4.754-4.916-2.698 0-4.75 2.195-4.75 4.882zm10.817 0c0 3.389-2.624 5.998-6.027 5.998-3.412 0-6.101-2.609-6.101-5.998 0-3.32 2.69-5.93 6.14-5.93 3.364 0 5.988 2.61 5.988 5.93z" fill="#FFF"/></g></svg>
